dist/svg/object-based/spaces_32.svg

<svg xmlns="http://www.w3.org/2000/svg" viewBox="0 0 32 32"><path d="M1 6v20h30V6H1zm28 18H3V8h26v16z"/><path d="M28 9H17v6h11V9zm-1 5h-9v-4h9v4zM4 9h11v6H4zM15 17H4v6h11v-6zm-1 5H5v-4h9v4zM28 17H17v6h11v-6zm-1 5h-9v-4h9v4z"/></svg>

<?xml version="1.0" encoding="iso-8859-1"?>
<!-- Generator: Adobe Illustrator 20.0.0, SVG Export Plug-In . SVG Version: 6.00 Build 0)  -->
<svg version="1.1" id="Layer_1" xmlns="http://www.w3.org/2000/svg" xmlns:xlink="http://www.w3.org/1999/xlink" x="0px" y="0px"
	 viewBox="0 0 32 32" style="enable-background:new 0 0 32 32;" xml:space="preserve">
<g>
	<path d="M1,6v20h30V6H1z M29,24H3V8h26V24z"/>
	<path d="M28,9H17v6h11V9z M27,14h-9v-4h9V14z"/>
	<rect x="4" y="9" width="11" height="6"/>
	<path d="M15,17H4v6h11V17z M14,22H5v-4h9V22z"/>
	<path d="M28,17H17v6h11V17z M27,22h-9v-4h9V22z"/>
</g>
</svg>
